X:2747
T:Castles in the Air
T:Sheena Masson's
M:4/4
K:G
R:hornpipe
P:ABB
P:A
DF|"G"G2 GB "D7"D2 (3DEF|"G"GF GA "Em"B2 BG|"C"cB ce "G"dB AG|"Am"AB AG E2 "D7"(3DEF|
"G"G2 GB "D7"D2 (3DEF|"G"GF GA "Em"B2 BG|"Am"cB ce "G"dB GA|"D7"Bc BA "G"G2||
P:B
|:(3Bcd|"C"e2-eg "G"dB-B2|"D7"cB cd "G"B GB|"C"cB ce "G"dB AG|"A7"AB AG E2 "D7"(3DEF|
"G"G2 GB "D7"D2 (3DEF|"G"GF GA "Em"B2 BG|"C"cB ce "G"dB GA|"D7"Bc BA "G"G2||


